public/external-logos/shipt-logo.svg

<svg width="119" height="40" viewBox="0 0 119 40" fill="none" xmlns="http://www.w3.org/2000/svg">
<path d="M36.928 31.5588V22.655C36.928 21.542 36.6254 20.6651 35.9865 19.9906C35.3476 19.316 34.4398 18.945 33.5319 18.9788C32.5904 18.945 31.6825 19.316 31.01 19.9906C30.3711 20.6651 30.0685 21.542 30.0685 22.655V31.5588L23.8814 31.5926V6.43237H30.0685V15.2013C31.5144 13.9197 33.3301 13.2452 35.5158 13.2452C37.8023 13.2452 39.6517 13.9872 41.0303 15.4374C42.4426 16.8877 43.1151 18.7089 43.1151 20.9012V31.5588H36.928Z" fill="#241239"/>
<path d="M51.017 10.9856C50.0083 11.9974 48.4951 12.3009 47.1501 11.7613C45.8387 11.2217 44.9645 9.90633 44.9645 8.4898C44.9645 7.54545 45.3344 6.63483 46.0069 5.99402C46.6794 5.31948 47.5873 4.94849 48.5288 4.94849C49.4703 4.94849 50.3782 5.31948 51.0507 5.99402C51.7232 6.66856 52.093 7.54545 52.093 8.4898C52.0594 9.40043 51.6895 10.311 51.017 10.9856ZM51.5887 31.5589H45.4016V13.7849H51.5887V31.5589Z" fill="#241239"/>
<path d="M11.6754 5.89292C13.4576 5.85919 15.2397 6.16273 16.8874 6.73609C18.4005 7.30945 19.611 7.95025 20.418 8.72597C20.956 9.23187 21.763 10.0076 21.763 10.0076L17.5262 14.3584C17.5262 14.3584 16.6856 13.7513 16.2821 13.4477C14.6345 12.2336 13.0877 11.6265 11.6418 11.6265C10.9021 11.5927 10.1623 11.7614 9.48979 12.0986C8.91816 12.4359 8.61553 12.8406 8.61553 13.414C8.61553 14.2909 9.25441 14.8643 10.5658 15.1678L15.1388 16.2133C19.9136 17.2926 22.301 19.8221 22.301 23.8019C22.301 25.9941 21.3932 27.9503 19.5774 29.6029C17.7616 31.2555 15.2061 32.0987 11.8772 32.0987C9.62429 32.0987 7.67402 31.7614 5.95913 31.1206C4.27786 30.4798 2.89922 29.6366 1.85684 28.6585L0.41095 27.2083L5.32025 22.8912C5.32025 22.8912 6.26176 23.7007 6.63163 24.0717C8.0439 25.5219 9.99417 26.2976 12.0117 26.2976C13.0204 26.2976 13.7938 26.0953 14.3655 25.7243C14.9371 25.3533 15.2061 24.8811 15.2061 24.3752C15.2397 23.8019 14.9371 23.2285 14.4327 22.925C13.9283 22.5877 13.0877 22.3179 11.9781 22.0818L8.0439 21.2049C6.12725 20.8002 4.58049 19.957 3.4036 18.7091C2.22672 17.4612 1.62146 15.8761 1.62146 13.9536C1.62146 11.5927 2.56297 9.67033 4.44599 8.15262C6.36263 6.66864 8.78366 5.89292 11.6754 5.89292Z" fill="#241239"/>
<path d="M88.0386 29.0633L85.483 25.0161C85.1468 25.2859 84.8105 25.522 84.4406 25.7243C84.0371 26.0279 83.5328 26.1965 82.9948 26.2302C82.0533 26.2302 81.5825 25.6906 81.5825 24.5776V24.2066V18.9115H87.2316V13.785H81.5825V8.55737H75.3618V26.129C75.3618 28.0852 75.9671 29.5692 77.2112 30.5473C78.4553 31.5253 79.9685 32.0312 81.7506 32.0312C82.8603 32.0312 83.9363 31.8626 84.9787 31.4579C85.9202 31.1543 86.7272 30.6147 87.3997 29.8727C87.7359 29.6366 87.9041 29.3668 88.0386 29.0633Z" fill="#241239"/>
<path d="M71.0241 15.8085C69.4437 14.1559 67.2245 13.2115 64.9379 13.2453C62.9204 13.2453 61.3064 13.8523 60.1631 15.0665V13.7849H54.0097V39.5184H60.1631V22.6888C60.1631 21.7107 60.533 20.8001 61.2055 20.0918C61.878 19.4173 62.7859 19.0125 63.761 19.0125C64.7026 19.0125 65.6441 19.4173 66.3166 20.0918C67.6952 21.5421 67.6952 23.8355 66.3166 25.252C65.6441 25.9603 64.7362 26.3313 63.761 26.3313C63.3239 26.3313 62.8868 26.2975 62.4833 26.2638V31.8287C63.2567 32.0311 64.0637 32.0985 64.8371 32.0985C67.1572 32.1323 69.4101 31.1879 71.0241 29.4678C72.739 27.7141 73.5796 25.4206 73.5796 22.6213C73.546 19.7883 72.7054 17.5286 71.0241 15.8085Z" fill="#241239"/>
<path d="M106.095 33.0429C102.699 33.0429 99.3366 32.4021 96.1759 31.1542C94.5618 30.5134 93.5531 28.8608 93.654 27.1408L94.5282 12.6045L98.9331 12.8743L98.0589 27.1408C103.204 29.0969 108.92 29.0969 114.065 27.107C113.964 25.5219 113.392 17.0902 113.056 12.166C108.651 14.392 104.918 14.5606 102.195 12.6382C100.48 11.4241 99.4711 9.40045 99.4711 7.30939C99.4375 5.08342 100.514 2.99235 102.296 1.71073C103.876 0.564023 105.894 0.193028 107.777 0.69893C109.861 1.27229 111.711 2.85744 112.686 5.01596L108.684 6.87093C108.247 5.92658 107.474 5.21833 106.667 4.98224C106.062 4.81361 105.389 4.9485 104.885 5.35323C104.28 5.8254 103.91 6.5674 103.91 7.34312C103.876 8.01765 104.212 8.65845 104.75 9.06318C106.432 10.2436 109.828 9.333 113.829 6.66858C114.535 6.19641 115.443 6.16267 116.149 6.56739C117.158 7.14075 117.225 7.98392 117.326 9.13063L118.57 27.0733C118.705 28.8271 117.696 30.4797 116.048 31.1205C112.854 32.4021 109.491 33.0429 106.095 33.0429Z" fill="#23cc6b"/>
</svg>

<svg width="119" height="40" fill="none" xmlns="http://www.w3.org/2000/svg"><path d="M36.928 31.559v-8.904c0-1.113-.303-1.99-.941-2.664a3.244 3.244 0 0 0-2.455-1.012 3.39 3.39 0 0 0-2.522 1.012c-.639.674-.942 1.551-.942 2.664v8.904l-6.187.034V6.433h6.188V15.2c1.445-1.281 3.261-1.956 5.447-1.956 2.286 0 4.136.742 5.514 2.192 1.413 1.45 2.085 3.272 2.085 5.464V31.56h-6.187ZM51.017 10.986a3.564 3.564 0 0 1-3.867.775 3.567 3.567 0 0 1-2.185-3.271c0-.945.37-1.855 1.042-2.496a3.558 3.558 0 0 1 2.522-1.046c.941 0 1.85.371 2.522 1.046a3.501 3.501 0 0 1 1.042 2.496 3.747 3.747 0 0 1-1.076 2.496Zm.572 20.573h-6.187V13.785h6.187v17.774ZM11.675 5.893c1.783-.034 3.565.27 5.212.843 1.514.573 2.724 1.214 3.531 1.99.538.506 1.345 1.282 1.345 1.282l-4.237 4.35s-.84-.607-1.244-.91c-1.648-1.214-3.194-1.822-4.64-1.822a4.365 4.365 0 0 0-2.152.473c-.572.337-.874.742-.874 1.315 0 .877.638 1.45 1.95 1.754l4.573 1.045c4.775 1.08 7.162 3.61 7.162 7.589 0 2.192-.908 4.148-2.724 5.8-1.815 1.654-4.37 2.497-7.7 2.497-2.253 0-4.203-.338-5.918-.978-1.681-.641-3.06-1.484-4.102-2.462L.41 27.209l4.91-4.318s.94.81 1.31 1.18c1.413 1.45 3.363 2.227 5.38 2.227 1.01 0 1.783-.203 2.355-.574.571-.37.84-.843.84-1.349a1.61 1.61 0 0 0-.773-1.45c-.505-.337-1.345-.607-2.455-.843l-3.934-.877c-1.917-.405-3.464-1.248-4.64-2.496-1.177-1.248-1.783-2.833-1.783-4.755 0-2.361.942-4.284 2.825-5.801 1.917-1.484 4.338-2.26 7.23-2.26ZM88.039 29.063l-2.556-4.047c-.336.27-.672.506-1.042.708-.404.304-.908.473-1.446.506-.942 0-1.413-.54-1.413-1.652V18.91h5.65v-5.126h-5.65V8.557h-6.22V26.13c0 1.956.605 3.44 1.85 4.418 1.243.978 2.757 1.484 4.539 1.484 1.11 0 2.185-.168 3.228-.573a5.526 5.526 0 0 0 2.42-1.585c.337-.236.505-.506.64-.81ZM71.024 15.809a8.294 8.294 0 0 0-6.086-2.564c-2.018 0-3.632.607-4.775 1.822v-1.282H54.01v25.733h6.153v-16.83c0-.977.37-1.888 1.043-2.596a3.61 3.61 0 0 1 2.555-1.08 3.67 3.67 0 0 1 2.556 1.08c1.378 1.45 1.378 3.744 0 5.16a3.475 3.475 0 0 1-2.556 1.08c-.437 0-.874-.035-1.278-.068v5.565c.774.202 1.58.27 2.354.27a8.325 8.325 0 0 0 6.187-2.631c1.715-1.754 2.556-4.047 2.556-6.847-.034-2.833-.875-5.092-2.556-6.812Z" fill="#241239"/><path d="M106.095 33.043a27 27 0 0 1-9.92-1.889c-1.613-.64-2.622-2.293-2.521-4.013l.874-14.536 4.405.27-.874 14.266a22.382 22.382 0 0 0 16.006-.034c-.101-1.585-.673-10.017-1.009-14.941-4.405 2.226-8.138 2.395-10.861.472-1.715-1.214-2.724-3.238-2.724-5.329a6.79 6.79 0 0 1 2.825-5.598 6.478 6.478 0 0 1 5.481-1.012c2.084.573 3.934 2.158 4.909 4.317l-4.002 1.855c-.437-.944-1.21-1.653-2.017-1.889a2.007 2.007 0 0 0-1.782.371 2.545 2.545 0 0 0-.975 1.99c-.034.675.302 1.315.84 1.72 1.682 1.18 5.078.27 9.079-2.394.706-.473 1.614-.506 2.32-.102 1.009.574 1.076 1.417 1.177 2.564l1.244 17.942c.135 1.754-.874 3.407-2.522 4.047a26.66 26.66 0 0 1-9.953 1.923Z" fill="#23cc6b"/></svg>
